X: 8667
T: Crossgate, The
R: hornpipe
M: 4/4
K: Dmajor
(3ABc|:d>f a>d c>e a>c|B>d g>B A>d f>A|G>B e>G F>A d>F|E>e e>d (3cBA B>c|
d>f a>d c>e a>c|B>d g>B A>d f>A|G>B e>g (3fed e>c|d2 f2 d2 (3ABc:|
|:d>f a>b a>f e>d|c>e a>b a>f e>d|B>G (3Bcd g>e (3fed|c2 F2 F3 F|
G>B d>e d>B G>B|A>c e>f e>c A>c|d>c d>f (3gfe a>g|1 f2 d2 d3 A:|2 f2 d2 d2||

